X: 26624
T: Mickey Doherty's
R: strathspey
M: 4/4
K: Amixolydian
|:e<d|c>A A/A/A c>A A/A/A|e>f e<d e2 d>e|c>A A/A/A c>A A/A/A|e>d B<c d2:|
|:c>d|e>aa>g a>ba>g|e>f e<d e2 c>d|e>aa>g e>fg>e|d<GB>c d2:|

